src/app/client/src/assets/images/edit-icon.svg

<?xml version="1.0" encoding="UTF-8"?>
<svg width="20px" height="20px" viewBox="0 0 20 20" version="1.1" xmlns="http://www.w3.org/2000/svg" xmlns:xlink="http://www.w3.org/1999/xlink">
    <!-- Generator: sketchtool 53 (72520) - https://sketchapp.com -->
    <title>1FB41CEF-F48D-4B9E-B6F0-6F09DC983D1F</title>
    <desc>Created with sketchtool.</desc>
    <g id="Page-1" stroke="none" stroke-width="1" fill="none" fill-rule="evenodd">
        <g id="search" transform="translate(-1213.000000, -417.000000)" fill="#0E65A7">
            <g id="edit-(3)" transform="translate(1213.000000, 417.000000)">
                <path d="M18.8843635,12.2474127 C18.6029025,12.2474127 18.3747877,12.4806558 18.3747877,12.7684445 L18.3747877,17.3948408 C18.3737924,18.2575963 17.6900451,18.9569187 16.8460601,18.9579363 L2.54787926,18.9579363 C1.70389425,18.9569187 1.02014696,18.2575963 1.0191517,17.3948408 L1.0191517,3.81728039 C1.02014696,2.95432141 1.70389425,2.25520251 2.54787926,2.25418488 L7.07235545,2.25418488 C7.35381651,2.25418488 7.5819313,2.0209417 7.5819313,1.73315305 C7.5819313,1.44536434 7.35381651,1.21212121 7.07235545,1.21212121 L2.54787926,1.21212121 C1.14137031,1.21374944 0.00159242454,2.37915109 0,3.81728039 L0,17.3948408 C0.00159242454,18.8329701 1.14137031,19.9983718 2.54787926,20 L16.8460601,20 C18.2525691,19.9983718 19.392347,18.8329701 19.3939394,17.3948408 L19.3939394,12.768648 C19.3939394,12.4808593 19.1658246,12.2474127 18.8843635,12.2474127 Z" id="Path"></path>
                <polygon id="Path" points="7.87878788 9.15049145 15.2110497 1.81818182 17.5757576 4.18284188 10.2434957 11.5151515"></polygon>
                <polygon id="Path" points="6.66666667 12.7272727 9.09090909 12.0557929 7.3381465 10.3030303"></polygon>
                <path d="M18.9345686,0.4088963 C18.3880871,-0.136298767 17.5033595,-0.136298767 16.956878,0.4088963 L16.3636364,1.00216468 L18.9977167,3.63636364 L19.5909583,3.04309526 C20.1363472,2.49658913 20.1363472,1.61182164 19.5909583,1.06531551 L18.9345686,0.4088963 Z" id="Path"></path>
            </g>
        </g>
    </g>
</svg>

<svg xmlns="http://www.w3.org/2000/svg" width="20" height="20" fill="#0e65a7" fill-rule="evenodd" xmlns:v="https://vecta.io/nano"><path d="M18.884 12.247c-.28 0-.5.233-.5.52v4.626c-.001.863-.685 1.562-1.53 1.563H2.548c-.844-.001-1.528-.7-1.53-1.563V3.817c.001-.863.685-1.562 1.53-1.563h4.524c.28 0 .5-.233.5-.52s-.228-.52-.5-.52H2.548C1.14 1.214.002 2.38 0 3.817v13.578C.002 18.833 1.14 19.998 2.548 20h14.298c1.407-.002 2.546-1.167 2.548-2.605V12.77c0-.288-.228-.52-.5-.52zM7.88 9.15l7.332-7.332 2.365 2.365-7.332 7.332zm-1.213 3.577l2.424-.67-1.753-1.753zM18.935.4a1.4 1.4 0 0 0-1.978 0l-.593.593 2.634 2.634.593-.593a1.4 1.4 0 0 0 0-1.978L18.935.4z"/></svg>
